!!!COM:	Bach, Johann Sebastian
!!!CDT:	1685/02/21/-1750/07/28/
!!!OTL@@DE:	Verleih uns Frieden gn&auml;diglich
!!!SCT:	BWV 126/6
!!!PC#:	215
!!!AGN:	chorale
**kern	**kern	**kern	**kern
*ICvox	*ICvox	*ICvox	*ICvox
*Ibass	*Itenor	*Ialto	*Isoprn
*I"Bass	*I"Tenor	*I"Alto	*I"Soprano
*clefF4	*clefGv2	*clefG2	*clefG2
*k[b-e-]	*k[b-e-]	*k[b-e-]	*k[b-e-]
*g:	*g:	*g:	*g:
*M4/4	*M4/4	*M4/4	*M4/4
*met(c)	*met(c)	*met(c)	*met(c)
*MM100	*MM100	*MM100	*MM100
4G	4B-	4d	4g
=1	=1	=1	=1
8CL	4B-	8e-L	4g
8DJ	.	8dJ	.
4E-	8AL	4c	4g
.	8GJ	.	.
8DL	4A	4d	4f#
8C	.	.	.
8BB-	8B-L	8dL	8gL
8AAJ	8cJ	8f#J	8aJ
=2	=2	=2	=2
4GG	4d	4g	4b-
4DD	8dL	4f#	4a
.	8cJ	.	.
4GG;	4B-;	4d;	4g;
4G	4B-	4d	4b-
=3	=3	=3	=3
8FL	4A	4fnX	4cc
8E-	.	.	.
8D	4A	4f	4cc
8CJ	.	.	.
8BB-L	4B-	4f	4dd
8C	.	.	.
8D	4B-	4f	4b-
8BB-J	.	.	.
=4	=4	=4	=4
2E-	4B-	2g	2cc
.	8AL	.	.
.	8GJ	.	.
4D;	4A;	4f#;	4dd;
4D	4A	4f#	4dd
=5	=5	=5	=5
8GL	4B-	4g	4dd
8FJ	.	.	.
4E	8cL	4g	4cc
.	8B-J	.	.
4F#	4A	4d	8ddL
.	.	.	8ccJ
8GL	8B-L	4d	4b-
8FJ	8AJ	.	.
=6	=6	=6	=6
8E-XL	4G	4.g	8ccL
8CJ	.	.	8b-J
4D	4d	.	4a
.	.	8f#	.
4GG;	4B-;	4d;	4g;
4E-	8B-L	4e-	8gL
.	8cJ	.	8aJ
=7	=7	=7	=7
4D	8dL	8fL	4b-
.	8cJ	8e-J	.
8GL	8B-L	4d	4b-
8FJ	8AJ	.	.
4E-	8GL	4g	4cc
.	8A	.	.
8DL	8B-	8fL	8b-L
8CJ	8cJ	8e-J	8aJ
=8	=8	=8	=8
4BB	4d	8dL	2g
.	.	8fJ	.
4C	16cLL	16e-LL	.
.	16BnXJ	16dJ	.
.	8cJ	8e-J	.
4GG;	4B;	4d;	4g;
4AA	4c	4f	4cc
=9	=9	=9	=9
4BB-X	8B-XL	4f	4dd
.	8AJ	.	.
8CL	4G	4e-	4cc
8DJ	.	.	.
4E-	4G	8B-L	8gL
.	.	8cJ	8aJ
8DL	8FL	4d	4b-
8EJ	8GJ	.	.
=10	=10	=10	=10
8F#L	8AL	8d	8aL
8GJ	8B-J	4g	8gJ
4D	4c	.	4a
.	.	8f#	.
4GG;	4B-;	4d;	4g;
4G	4B-	4d	4g
=11	=11	=11	=11
4C#	4A	4e	4g
4D	4A	4d	4fnX
4G	4G	8dL	4b-
.	.	8eJ	.
4FnX	4A	4f	4cc
=12	=12	=12	=12
8B-L	8B-L	4f	8ddL
8A	8cJ	.	8ccJ
8G	4d	4g	4b-
8FJ	.	.	.
4E-X	8GL	4g	4cc
.	16AL	.	.
.	16B-JJ	.	.
4F	4A	4f	4cc
=13	=13	=13	=13
2BB-;	2B-;	2f;	2dd;
2G	2B-	2e-	2ee-
=14	=14	=14	=14
4F	4B-	4f	4dd
4E-	4B-	4g	4cc
4F	4B-	8fL	4.cc
.	.	8dJ	.
4FF	4A	4e-	.
.	.	.	8b-
=15	=15	=15	=15
2BB-;	2F;	2d;	2b-;
4r	4ry	4ry	4r
4B-	4B-	8fL	4dd
.	.	8gJ	.
=16	=16	=16	=16
4F#	4A	4a	4dd
8GL	4d	4g	4b-
8FJ	.	.	.
8E-L	4G	4g	8ccL
8DJ	.	.	8ddJ
4C	4c	4g	4ee-
=17	=17	=17	=17
2GG;	2B;	2g;	2dd;
4AA	4c	4f	4ff
4BB-	8B-L	4f	4dd
.	8A-J	.	.
=18	=18	=18	=18
[1BB-	4G	8B-L	4ee-
.	.	8c	.
.	4F	8d	8ddL
.	.	8e-J	8ccJ
.	8B-	4f	4dd
.	4A-	.	.
.	.	4f	4dd
.	8G	.	.
=19	=19	=19	=19
4BB-]	8GL	8gL	4ee-
.	8AnXJ	8f	.
8BB-L	2B-	8f	4dd
8CJ	.	8e-J	.
8DL	.	8dL	8ffL
8C	.	8e-J	8ee-J
8D	[4B-	4f	4dd
8E-J	.	.	.
=20	=20	=20	=20
4F	8B-L]	4.f	2cc
.	8GJ	.	.
4FF	4A	.	.
.	.	8e-	.
2BB-;	2F;	2d;	2b-;
=21	=21	=21	=21
8B-L	4B-	8fL	4dd
8A	.	8gJ	.
8G	4A	4a	4dd
8F#J	.	.	.
8GL	8B-L	4d	4b-
8F	8AJ	.	.
8E-	4G	4c	4cc
8DJ	.	.	.
=22	=22	=22	=22
8E-L	4.e-	4.g	4b-
8D	.	.	.
8C	.	.	4a
8DJ	16dLL	8f#	.
.	16cJJ	.	.
2E-;	2B-;	2g;	2g;
=23	=23	=23	=23
4BB-	8B-L	8dL	4fnX
.	8AJ	8cJ	.
4E-	4G	8B-L	8gL
.	.	8cJ	8aJ
4D	8FL	8dL	4b-
.	8E-J	8cJ	.
8CL	4F	4d	4g
8BBJ	.	.	.
=24	=24	=24	=24
2.C;	2.E-;	2.c;	2.g;
[4D	4F	4A	4f
=25	=25	=25	=25
4D]	4.E-	8B-L	4g
.	.	16cL	.
.	.	16dJJ	.
4C	.	4e-	4a
.	16DLL	.	.
.	16E-JJ	.	.
8DL	8FL	4.d	4b-
8E-J	8GJ	.	.
[4F	4A	.	4a
.	.	16e-LL	.
.	.	16fJJ	.
=26	=26	=26	=26
8FL]	8BL	4.g	[2g
16E-L	16cL	.	.
16DJJ	16dJJ	.	.
8E-L	8GL	.	.
8CJ	8cJ	16fLL	.
.	.	16e-JJ	.
2D	8B-L	2d	4g]
.	16AL	.	.
.	16GJJ	.	.
.	4A	.	4f#
=27	=27	=27	=27
2.GG;	2.B;	2.d;	2.g;
==	==	==	==
*-	*-	*-	*-
!!!hum2abc: -Q ''
!!!title: @{PC#}. @{OTL@@DE}
!!!YOR1: 371 vierstimmige Choralges&auml;nge von Johann Sebastian Bach, 
!!!YOR2: 4th ed. by Alfred D&ouml;rffel (Leipzig: Breitkopf und H&auml;rtel, 
!!!YOR2: c.1875). 178 pp. Plate "V.A.10".  reprint: J.S. Bach, 371 Four-Part 
!!!YOR4: Chorales (New York: Associated Music Publishers, Inc., c.1940).
!!!SMS: B&H, 4th ed, Alfred D&ouml;rffel, c.1875, plate V.A.10
!!!EED:  Craig Stuart Sapp
!!!EEV:  2009/05/22
